src/components/00-materials/images-raw/Gear 2.svg

<svg width="96" height="96" viewBox="0 0 96 96" fill="none" xmlns="http://www.w3.org/2000/svg">
<path d="M67 53.4498C72.2191 53.4498 76.45 49.2189 76.45 43.9998C76.45 38.7807 72.2191 34.5498 67 34.5498C61.781 34.5498 57.55 38.7807 57.55 43.9998C57.55 49.2189 61.781 53.4498 67 53.4498Z" stroke="#00008F" stroke-width="2" stroke-linecap="round" stroke-linejoin="round"/>
<path d="M91 46.9999V40.9999C90.9988 40.637 90.8615 40.2877 90.6152 40.0211C90.369 39.7545 90.0317 39.59 89.67 39.5599L86.05 39.2499C85.58 37.382 84.8388 35.593 83.85 33.9399L86.19 31.1699C86.434 30.8891 86.5616 30.5257 86.5467 30.1541C86.5318 29.7824 86.3757 29.4304 86.11 29.1699L81.83 24.8899C81.5696 24.6243 81.2176 24.4681 80.8459 24.4532C80.4742 24.4384 80.1109 24.566 79.83 24.8099L77.06 27.1499C75.4135 26.1813 73.6349 25.4571 71.78 24.9999L71.47 21.3799C71.4519 21.0041 71.2884 20.6501 71.0142 20.3926C70.7399 20.1351 70.3762 19.9943 70 19.9999H64C63.6371 20.0012 63.2879 20.1385 63.0213 20.3847C62.7546 20.631 62.5901 20.9682 62.56 21.3299L62.22 24.9999C60.3521 25.47 58.5631 26.2112 56.91 27.1999L54.14 24.8599C53.8592 24.616 53.4959 24.4884 53.1242 24.5033C52.7525 24.5181 52.4005 24.6743 52.14 24.9399L47.86 29.2199C47.5944 29.4804 47.4382 29.8324 47.4234 30.2041C47.4085 30.5757 47.5361 30.9391 47.78 31.2199L50.12 33.9899C49.1663 35.6226 48.4523 37.384 48 39.2199L44.38 39.5299C44.0043 39.548 43.6502 39.7115 43.3927 39.9858C43.1352 40.2601 42.9944 40.6237 43 40.9999V46.9999C43.0013 47.3628 43.1386 47.7121 43.3849 47.9787C43.6311 48.2453 43.9684 48.4099 44.33 48.4399L47.95 48.7499C48.4201 50.6179 49.1613 52.4069 50.15 54.0599L47.81 56.8299C47.5661 57.1107 47.4385 57.4741 47.4534 57.8458C47.4682 58.2175 47.6244 58.5695 47.89 58.8299L52.17 63.1099C52.4305 63.3755 52.7825 63.5317 53.1542 63.5466C53.5259 63.5615 53.8892 63.4339 54.17 63.1899L56.94 60.8499C58.5931 61.8386 60.3821 62.5799 62.25 63.0499L62.56 66.6699C62.5901 67.0316 62.7546 67.3689 63.0213 67.6151C63.2879 67.8614 63.6371 67.9987 64 67.9999H70C70.363 67.9987 70.7122 67.8614 70.9788 67.6151C71.2454 67.3689 71.41 67.0316 71.44 66.6699L71.75 63.0499C73.618 62.5799 75.407 61.8386 77.06 60.8499L79.83 63.1899C80.1109 63.4339 80.4742 63.5615 80.8459 63.5466C81.2176 63.5317 81.5696 63.3755 81.83 63.1099L86.11 58.8299C86.3757 58.5695 86.5318 58.2175 86.5467 57.8458C86.5616 57.4741 86.434 57.1107 86.19 56.8299L83.85 54.0599C84.8388 52.4069 85.58 50.6179 86.05 48.7499L89.67 48.4399C90.0317 48.4099 90.369 48.2453 90.6152 47.9787C90.8615 47.7121 90.9988 47.3628 91 46.9999V46.9999Z" stroke="#00008F" stroke-width="2" stroke-linecap="round" stroke-linejoin="round"/>
<path d="M23.35 70.9299C27.3706 70.9299 30.63 67.6705 30.63 63.6499C30.63 59.6292 27.3706 56.3699 23.35 56.3699C19.3294 56.3699 16.07 59.6292 16.07 63.6499C16.07 67.6705 19.3294 70.9299 23.35 70.9299Z" stroke="#00008F" stroke-width="2" stroke-linecap="round" stroke-linejoin="round"/>
<path d="M40.21 71.5498L41.65 67.1198C41.7361 66.8502 41.7169 66.5581 41.5963 66.3021C41.4757 66.0461 41.2627 65.8452 41 65.7398L38.42 64.6598C38.5254 63.1806 38.4074 61.6939 38.07 60.2498L40.44 58.7698C40.6808 58.6239 40.8571 58.3918 40.9332 58.1208C41.0093 57.8497 40.9796 57.5598 40.85 57.3098L38.73 53.1598C38.5994 52.913 38.382 52.7233 38.1198 52.6273C37.8576 52.5313 37.5691 52.5357 37.31 52.6398L34.73 53.6998C33.7568 52.5797 32.6208 51.6123 31.36 50.8298L32 48.1098C32.0612 47.836 32.0184 47.5491 31.8797 47.3051C31.7411 47.0611 31.5166 46.8774 31.25 46.7898L26.82 45.3498C26.5517 45.2632 26.2605 45.281 26.0047 45.3996C25.7489 45.5182 25.5472 45.729 25.44 45.9898L24.36 48.5698C22.8808 48.4644 21.3941 48.5824 19.95 48.9198L18.47 46.5498C18.3239 46.3065 18.0901 46.1284 17.8167 46.0521C17.5433 45.9759 17.251 46.0073 17 46.1398L12.86 48.2598C12.6098 48.387 12.4165 48.6036 12.3183 48.8666C12.2202 49.1295 12.2244 49.4198 12.33 49.6798L13.39 52.2698C12.2726 53.2457 11.3055 54.3813 10.52 55.6398L7.81003 54.9998C7.53616 54.9386 7.24931 54.9815 7.00532 55.1201C6.76132 55.2588 6.57764 55.4832 6.49003 55.7498L5.05003 60.1798C4.96578 60.4482 4.98469 60.7384 5.10305 60.9936C5.22141 61.2489 5.43071 61.4508 5.69003 61.5598L8.27003 62.6398C8.16464 64.1191 8.28263 65.6057 8.62003 67.0498L6.25003 68.5298C6.00853 68.6776 5.83198 68.9115 5.75591 69.1842C5.67984 69.4569 5.7099 69.7484 5.84003 69.9998L8.00003 74.1298C8.12725 74.38 8.34378 74.5734 8.60676 74.6715C8.86974 74.7697 9.15998 74.7655 9.42003 74.6598L12 73.5998C12.9759 74.7173 14.1115 75.6844 15.37 76.4698L14.73 79.1898C14.6688 79.4637 14.7117 79.7505 14.8503 79.9945C14.989 80.2385 15.2134 80.4222 15.48 80.5098L19.88 81.9998C20.1484 82.0841 20.4386 82.0652 20.6938 81.9468C20.9491 81.8285 21.1509 81.6191 21.26 81.3598L22.34 78.7798C23.8193 78.8852 25.3059 78.7672 26.75 78.4298L28.23 80.7998C28.3776 81.0388 28.6097 81.2136 28.8801 81.2895C29.1505 81.3655 29.4396 81.337 29.69 81.2098L33.84 78.9998C34.0868 78.8692 34.2765 78.6518 34.3726 78.3896C34.4686 78.1274 34.4641 77.8389 34.36 77.5798L33.3 74.9998C34.4201 74.0266 35.3876 72.8906 36.17 71.6298L38.89 72.2698C39.1601 72.3326 39.4438 72.294 39.6872 72.1612C39.9306 72.0285 40.1166 71.8109 40.21 71.5498Z" stroke="#00008F" stroke-width="2" stroke-linecap="round" stroke-linejoin="round"/>
</svg>

<svg width="96" height="96" viewBox="0 0 96 96" fill="none" xmlns="http://www.w3.org/2000/svg"><path d="M67 53.45a9.45 9.45 0 100-18.9 9.45 9.45 0 000 18.9z" stroke="#00008F" stroke-width="2" stroke-linecap="round" stroke-linejoin="round"/><path d="M91 47v-6a1.45 1.45 0 00-1.33-1.44l-3.62-.31a19.717 19.717 0 00-2.2-5.31l2.34-2.77a1.46 1.46 0 00-.08-2l-4.28-4.28a1.46 1.46 0 00-2-.08l-2.77 2.34A19.721 19.721 0 0071.78 25l-.31-3.62A1.45 1.45 0 0070 20h-6a1.45 1.45 0 00-1.44 1.33L62.22 25a19.723 19.723 0 00-5.31 2.2l-2.77-2.34a1.46 1.46 0 00-2 .08l-4.28 4.28a1.46 1.46 0 00-.08 2l2.34 2.77A19.724 19.724 0 0048 39.22l-3.62.31A1.45 1.45 0 0043 41v6a1.45 1.45 0 001.33 1.44l3.62.31a19.72 19.72 0 002.2 5.31l-2.34 2.77a1.46 1.46 0 00.08 2l4.28 4.28a1.46 1.46 0 002 .08l2.77-2.34a19.72 19.72 0 005.31 2.2l.31 3.62A1.45 1.45 0 0064 68h6a1.45 1.45 0 001.44-1.33l.31-3.62a19.717 19.717 0 005.31-2.2l2.77 2.34a1.46 1.46 0 002-.08l4.28-4.28a1.46 1.46 0 00.08-2l-2.34-2.77a19.714 19.714 0 002.2-5.31l3.62-.31A1.45 1.45 0 0091 47v0zM23.35 70.93a7.28 7.28 0 100-14.56 7.28 7.28 0 000 14.56z" stroke="#00008F" stroke-width="2" stroke-linecap="round" stroke-linejoin="round"/><path d="M40.21 71.55l1.44-4.43a1.12 1.12 0 00-.65-1.38l-2.58-1.08a14.77 14.77 0 00-.35-4.41l2.37-1.48a1.11 1.11 0 00.41-1.46l-2.12-4.15a1.13 1.13 0 00-1.42-.52l-2.58 1.06a14.81 14.81 0 00-3.37-2.87l.64-2.72a1.13 1.13 0 00-.75-1.32l-4.43-1.44a1.12 1.12 0 00-1.38.64l-1.08 2.58a14.77 14.77 0 00-4.41.35l-1.48-2.37a1.11 1.11 0 00-1.47-.41l-4.14 2.12a1.12 1.12 0 00-.53 1.42l1.06 2.59a15.065 15.065 0 00-2.87 3.37L7.81 55a1.13 1.13 0 00-1.32.75l-1.44 4.43a1.13 1.13 0 00.64 1.38l2.58 1.08a14.77 14.77 0 00.35 4.41l-2.37 1.48A1.12 1.12 0 005.84 70L8 74.13a1.12 1.12 0 001.42.53L12 73.6a15.06 15.06 0 003.37 2.87l-.64 2.72a1.13 1.13 0 00.75 1.32l4.4 1.49a1.13 1.13 0 001.38-.64l1.08-2.58a14.77 14.77 0 004.41-.35l1.48 2.37a1.12 1.12 0 001.46.41L33.84 79a1.13 1.13 0 00.52-1.42L33.3 75a14.807 14.807 0 002.87-3.37l2.72.64a1.13 1.13 0 001.32-.72z" stroke="#00008F" stroke-width="2" stroke-linecap="round" stroke-linejoin="round"/></svg>
